X: 25084
T: Maids Of Mitchelstown, The
R: reel
M: 4/4
K: Dminor
|:F3D E4|DFED CA,A,2|F3D E2EF|GAGE EDD2:|
|:C2AD D4|AG^FA G4|ECDB, C4|B,CDE A,DD2:|

